src/components/LandingPage/images/SocialProofLogos/staples.svg

<svg xmlns="http://www.w3.org/2000/svg" width="144" height="30" fill="none" viewBox="0 0 144 30"><g clip-path="url(#clip0)" opacity=".4"><path fill="#fff" d="M53.8079 12.3608C51.6263 11.9005 49.3863 11.4148 49.3863 9.66159C49.3863 7.72908 51.4241 7.32404 53.1655 7.32404C54.9844 7.33378 56.779 7.74195 58.4226 8.51972L58.5799 8.59594C58.6014 8.60658 58.6262 8.60847 58.6491 8.60123C58.672 8.59398 58.6912 8.57816 58.7026 8.55708L60.2733 5.78311C60.2798 5.77213 60.2839 5.75994 60.2855 5.7473C60.287 5.73466 60.2859 5.72184 60.2822 5.70964C60.2786 5.69743 60.2725 5.68611 60.2642 5.67639C60.256 5.66666 60.2458 5.65872 60.2344 5.65308L60.0667 5.56939C57.6964 4.49627 55.4789 4.00006 53.0921 4.00006C48.4594 4.00006 45.4647 6.24195 45.4647 9.7154C45.4647 13.7164 48.8218 14.9614 52.4453 15.7087C54.7272 16.1795 56.9373 16.6458 56.9373 18.4707C56.9373 20.4421 54.7452 20.8621 52.8765 20.8621C50.9015 20.8621 48.9206 20.2852 46.8183 19.0985L46.7525 19.0596C46.7418 19.0532 46.7299 19.0491 46.7176 19.0473C46.7053 19.0456 46.6928 19.0464 46.6808 19.0496C46.6688 19.0528 46.6575 19.0584 46.6477 19.066C46.6379 19.0736 46.6297 19.0831 46.6237 19.094L44.9976 21.9771C44.9859 21.9982 44.9828 22.023 44.9889 22.0464C44.995 22.0698 45.0099 22.0899 45.0305 22.1026L45.0979 22.143C47.4735 23.4858 50.154 24.199 52.884 24.2145C57.957 24.2145 60.8663 22.1116 60.8663 18.4438C60.8633 13.8644 56.8055 12.9945 53.8079 12.3608Z"/><path fill="#fff" d="M72.6643 20.563C72.6603 20.551 72.6539 20.5399 72.6455 20.5304C72.6371 20.521 72.6268 20.5133 72.6154 20.5078C72.6039 20.5024 72.5915 20.4993 72.5788 20.4988C72.5661 20.4982 72.5534 20.5003 72.5416 20.5048L72.3349 20.584C71.5219 20.8978 70.9619 21.0323 69.7895 21.0323C68.4284 21.0323 67.5435 20.2985 67.5435 19.1641V12.2516H72.3993C72.4116 12.2518 72.4239 12.2495 72.4353 12.245C72.4467 12.2404 72.4572 12.2336 72.4659 12.225C72.4747 12.2164 72.4817 12.2061 72.4864 12.1947C72.4912 12.1834 72.4937 12.1712 72.4937 12.1589V9.36254C72.4937 9.33796 72.4839 9.31439 72.4665 9.29702C72.4491 9.27964 72.4254 9.26988 72.4008 9.26988H67.5495V5.62605C67.5495 5.60147 67.5397 5.57791 67.5223 5.56053C67.5049 5.54315 67.4812 5.53339 67.4566 5.53339H63.902C63.8896 5.53338 63.8774 5.53583 63.8661 5.54058C63.8547 5.54533 63.8444 5.55229 63.8358 5.56105C63.8271 5.56982 63.8203 5.58021 63.8158 5.59163C63.8112 5.60304 63.8089 5.61525 63.8091 5.62755V9.26838H60.9073C60.895 9.26838 60.8828 9.27082 60.8714 9.27557C60.8601 9.28032 60.8498 9.28728 60.8411 9.29605C60.8325 9.30481 60.8257 9.3152 60.8211 9.32662C60.8165 9.33804 60.8143 9.35025 60.8145 9.36254V12.1649C60.8143 12.1773 60.8166 12.1897 60.8212 12.2012C60.8259 12.2127 60.8328 12.2232 60.8416 12.2319C60.8504 12.2407 60.8609 12.2477 60.8725 12.2523C60.884 12.257 60.8964 12.2593 60.9088 12.2591H63.8106V19.5437C63.8106 22.4687 65.7706 24.2143 69.0513 24.2143C70.9574 24.2143 72.0714 23.8183 73.2318 23.34L73.4519 23.2458C73.4732 23.2363 73.4901 23.2193 73.4995 23.198C73.5089 23.1768 73.5101 23.1528 73.5029 23.1308L72.6643 20.563Z"/><path fill="#fff" d="M32.4336 4.41095H5.03248C2.43611 4.41095 0.452148 6.51684 0.452148 9.11295V23.7406C0.452149 23.7671 0.462718 23.7926 0.481532 23.8114C0.500346 23.8301 0.525863 23.8407 0.552469 23.8407H4.09515C4.12176 23.8407 4.14727 23.8301 4.16609 23.8114C4.1849 23.7926 4.19547 23.7671 4.19547 23.7406V8.89474H33.2721V23.7406C33.2721 23.7671 33.2827 23.7926 33.3015 23.8114C33.3203 23.8301 33.3458 23.8407 33.3724 23.8407H36.9196C36.9462 23.8407 36.9717 23.8301 36.9905 23.8114C37.0094 23.7926 37.0199 23.7671 37.0199 23.7406V9.11295C37.0199 6.51684 35.0405 4.41095 32.4336 4.41095Z"/><path fill="#fff" d="M89.2695 21.1131H88.7065C88.0102 21.1131 87.6404 20.7334 87.6404 20.0175V14.2304C87.6404 10.6434 85.6938 8.89474 81.669 8.89474C79.4493 8.85863 77.2495 9.31821 75.2305 10.2399C75.2094 10.2491 75.1926 10.2659 75.1831 10.2869C75.1737 10.3079 75.1725 10.3316 75.1796 10.3535L76.0676 13.0617C76.0716 13.0737 76.078 13.0848 76.0864 13.0943C76.0948 13.1038 76.105 13.1114 76.1165 13.1169C76.128 13.1223 76.1404 13.1254 76.1531 13.1259C76.1658 13.1265 76.1785 13.1244 76.1903 13.12C78.1473 12.3473 79.8932 11.9243 81.112 11.9243C82.4956 11.9243 83.9001 12.1799 83.9001 14.069V14.8746C83.9001 14.8746 83.6799 14.8911 79.2374 15.2483C74.7948 15.6055 74.1465 18.7112 74.1465 19.9697C74.1465 22.4687 76.1349 24.2158 78.9828 24.2158C80.9658 24.2439 82.8904 23.5457 84.3927 22.2534C84.7251 22.9484 85.6654 24.1142 88.2303 24.1142H89.2784C89.2908 24.1144 89.303 24.1121 89.3144 24.1076C89.3259 24.103 89.3363 24.0962 89.3451 24.0876C89.3538 24.079 89.3608 24.0687 89.3656 24.0573C89.3703 24.046 89.3728 24.0338 89.3728 24.0215V21.2057C89.3729 21.1926 89.3702 21.1796 89.3649 21.1677C89.3595 21.1557 89.3518 21.145 89.342 21.1362C89.3322 21.1274 89.3207 21.1209 89.3082 21.1169C89.2957 21.1129 89.2825 21.1116 89.2695 21.1131ZM83.8986 19.747C82.2515 20.9113 81.0806 21.391 79.8782 21.391C78.6265 21.391 77.782 20.7454 77.782 19.7844C77.782 19.3763 77.8299 18.094 79.6072 17.8668C81.3845 17.6396 83.8956 17.3228 83.8956 17.3228L83.8986 19.747Z"/><path fill="#fff" d="M137.404 15.0108C135.008 14.5909 133.825 14.3697 133.825 13.2442C133.825 12.5761 134.143 11.6928 136.733 11.6928C138.33 11.6936 139.901 12.0967 141.3 12.8646L141.4 12.9169C141.422 12.9279 141.446 12.9303 141.469 12.9236C141.493 12.9169 141.512 12.9017 141.524 12.881L142.914 10.4717C142.92 10.4607 142.924 10.4484 142.926 10.4357C142.927 10.423 142.926 10.4101 142.922 10.3979C142.919 10.3857 142.912 10.3744 142.904 10.3647C142.895 10.3551 142.885 10.3472 142.874 10.3417L142.757 10.2849C141.08 9.51521 139.472 8.88 136.753 8.88C132.594 8.88 130.304 10.4822 130.304 13.3907C130.304 16.6997 133.385 17.4889 136.272 17.9671C138.826 18.3901 139.853 18.7488 139.853 19.8742C139.853 20.8995 138.864 21.3972 136.75 21.3972C134.803 21.3972 132.822 20.5722 131.495 19.8787L131.412 19.8384C131.39 19.8281 131.365 19.8264 131.342 19.8336C131.32 19.8408 131.3 19.8564 131.289 19.8772L129.91 22.3104C129.904 22.3212 129.9 22.3331 129.898 22.3454C129.897 22.3577 129.898 22.3702 129.901 22.3822C129.904 22.3941 129.91 22.4053 129.918 22.415C129.925 22.4248 129.935 22.4329 129.946 22.439L130.028 22.4838C132.199 23.6063 134.52 24.1996 136.75 24.1996C141.102 24.1996 143.309 22.6647 143.309 19.6351C143.311 16.3336 140.39 15.5339 137.404 15.0108Z"/><path fill="#fff" d="M99.209 8.8949C97.5185 8.8949 96.09 9.45238 94.717 10.6496V9.36271C94.717 9.33813 94.7072 9.31456 94.6898 9.29718C94.6724 9.2798 94.6488 9.27004 94.6241 9.27004H91.0665C91.0542 9.27004 91.042 9.27248 91.0306 9.27723C91.0192 9.28198 91.0089 9.28894 91.0003 9.29771C90.9917 9.30647 90.9848 9.31686 90.9803 9.32828C90.9757 9.3397 90.9734 9.35191 90.9736 9.3642V29.9059C90.9734 29.9183 90.9757 29.9307 90.9804 29.9422C90.9851 29.9537 90.992 29.9642 91.0008 29.973C91.0096 29.9817 91.0201 29.9887 91.0316 29.9933C91.0432 29.998 91.0555 30.0003 91.068 30.0001H94.6196C94.632 30.0003 94.6442 29.998 94.6556 29.9935C94.6671 29.9889 94.6775 29.9821 94.6862 29.9735C94.695 29.9649 94.702 29.9546 94.7068 29.9432C94.7115 29.9319 94.714 29.9197 94.714 29.9074V22.5092C96.0211 23.5942 97.6577 24.216 99.206 24.216C103.177 24.216 105.944 21.0669 105.944 16.5562C105.947 12.2592 102.987 8.8949 99.209 8.8949ZM98.2731 21.0385C96.9734 21.0385 95.8774 20.4272 94.7125 19.0567V13.9257C95.9103 12.6418 97.0139 12.0709 98.2731 12.0709C100.661 12.0709 102.204 13.8315 102.204 16.5547C102.204 19.236 100.624 21.0385 98.2731 21.0385Z"/><path fill="#fff" d="M111.617 4.41095H108.062C108.01 4.41095 107.968 4.45311 107.968 4.50511V23.7465C107.968 23.7985 108.01 23.8407 108.062 23.8407H111.617C111.669 23.8407 111.711 23.7985 111.711 23.7465V4.50511C111.711 4.45311 111.669 4.41095 111.617 4.41095Z"/><path fill="#fff" d="M126.976 19.8981C126.964 19.8771 126.944 19.8616 126.921 19.8549C126.897 19.8482 126.872 19.8508 126.851 19.8622L126.729 19.928C125.518 20.5632 124.425 21.2044 122.129 21.2044C119.639 21.2044 117.949 19.8219 117.611 17.5068H128.156C128.169 17.507 128.181 17.5047 128.192 17.5001C128.204 17.4956 128.214 17.4888 128.223 17.4802C128.232 17.4715 128.239 17.4612 128.243 17.4499C128.248 17.4386 128.251 17.4264 128.251 17.4141V16.3963C128.251 11.763 125.479 8.8949 121.017 8.8949C116.742 8.8949 113.755 12.0903 113.755 16.6668C113.755 21.182 116.985 24.216 121.791 24.216C124.072 24.2461 126.316 23.6388 128.27 22.4628L128.333 22.4225C128.353 22.4093 128.367 22.389 128.373 22.3656C128.378 22.3423 128.375 22.3177 128.363 22.2969L126.976 19.8981ZM121.051 11.9215C122.998 11.9215 124.196 12.9318 124.516 14.8449H117.628C117.958 12.9572 119.174 11.9215 121.051 11.9215Z"/></g><defs><clipPath id="clip0"><rect width="142.857" height="26" fill="#fff" transform="translate(0.452148 4.00006)"/></clipPath></defs></svg>

<svg fill="none" viewBox="0 0 144 30"><g clip-path="url(#clip0)" opacity=".4"><path fill="#fff" d="M53.808 12.36c-2.182-.46-4.422-.945-4.422-2.698 0-1.933 2.038-2.338 3.78-2.338 1.818.01 3.613.418 5.257 1.196l.157.076a.093.093 0 00.123-.039l1.57-2.774a.093.093 0 00.01-.073.09.09 0 00-.049-.057l-.167-.084C57.697 4.496 55.479 4 53.092 4c-4.633 0-7.627 2.242-7.627 5.715 0 4.001 3.357 5.246 6.98 5.994 2.282.47 4.492.937 4.492 2.762 0 1.971-2.192 2.391-4.06 2.391-1.976 0-3.956-.577-6.059-1.763l-.066-.04a.095.095 0 00-.071-.01.093.093 0 00-.057.045l-1.626 2.883a.094.094 0 00.033.126l.067.04a16.008 16.008 0 007.786 2.072c5.073 0 7.982-2.103 7.982-5.771-.003-4.58-4.06-5.45-7.058-6.083zm18.856 8.203a.094.094 0 00-.122-.058l-.207.079c-.813.314-1.373.448-2.545.448-1.362 0-2.247-.733-2.247-1.868v-6.912H72.4a.094.094 0 00.067-.027.09.09 0 00.028-.066V9.363a.093.093 0 00-.093-.093H67.55V5.626a.093.093 0 00-.092-.093h-3.555a.092.092 0 00-.093.095v3.64h-2.902a.093.093 0 00-.086.059.092.092 0 00-.006.036v2.802a.094.094 0 00.027.067.091.091 0 00.067.027h2.902v7.285c0 2.925 1.96 4.67 5.24 4.67 1.906 0 3.02-.396 4.18-.874l.22-.094a.094.094 0 00.052-.115l-.839-2.568zM32.434 4.411H5.032c-2.596 0-4.58 2.106-4.58 4.702V23.74a.1.1 0 00.1.1h3.543a.1.1 0 00.1-.1V8.895h29.077V23.74a.1.1 0 00.1.1h3.548a.1.1 0 00.1-.1V9.113c0-2.596-1.98-4.702-4.586-4.702zm56.835 16.702h-.563c-.696 0-1.066-.38-1.066-1.096V14.23c0-3.587-1.946-5.335-5.971-5.335a14.92 14.92 0 00-6.438 1.345.093.093 0 00-.051.114l.888 2.708a.094.094 0 00.122.058c1.957-.773 3.703-1.196 4.922-1.196 1.384 0 2.788.256 2.788 2.145v.806s-.22.016-4.663.373c-4.442.357-5.09 3.463-5.09 4.722 0 2.499 1.988 4.246 4.836 4.246a8.12 8.12 0 005.41-1.963c.332.695 1.272 1.861 3.837 1.861h1.048a.094.094 0 00.088-.057.093.093 0 00.007-.035v-2.816a.092.092 0 00-.065-.09.092.092 0 00-.039-.003zm-5.37-1.366c-1.648 1.164-2.818 1.644-4.02 1.644-1.253 0-2.097-.646-2.097-1.607 0-.408.048-1.69 1.825-1.917 1.778-.227 4.289-.544 4.289-.544l.003 2.424zm53.505-4.736c-2.396-.42-3.579-.641-3.579-1.767 0-.668.318-1.551 2.908-1.551 1.597 0 3.168.404 4.567 1.172l.1.052a.094.094 0 00.124-.036l1.39-2.41a.112.112 0 00.012-.035.097.097 0 00-.022-.071.107.107 0 00-.03-.023l-.117-.057c-1.677-.77-3.285-1.405-6.004-1.405-4.159 0-6.449 1.602-6.449 4.51 0 3.31 3.081 4.099 5.968 4.577 2.554.423 3.581.782 3.581 1.907 0 1.026-.989 1.523-3.103 1.523-1.947 0-3.928-.825-5.255-1.518l-.083-.04a.097.097 0 00-.07-.005.093.093 0 00-.053.043l-1.379 2.433a.108.108 0 00-.012.035.114.114 0 00.003.037.084.084 0 00.017.033c.007.01.017.018.028.024l.082.045c2.171 1.122 4.492 1.716 6.722 1.716 4.352 0 6.559-1.535 6.559-4.565.002-3.301-2.919-4.101-5.905-4.624zM99.209 8.895c-1.69 0-3.119.557-4.492 1.755V9.363a.093.093 0 00-.093-.093h-3.557a.093.093 0 00-.093.094v20.542a.092.092 0 00.058.087.093.093 0 00.036.007h3.552a.094.094 0 00.087-.057.093.093 0 00.007-.036V22.51c1.307 1.085 2.944 1.707 4.492 1.707 3.971 0 6.738-3.15 6.738-7.66.003-4.297-2.957-7.661-6.735-7.661zm-.936 12.143c-1.3 0-2.396-.61-3.56-1.981v-5.131c1.197-1.284 2.3-1.855 3.56-1.855 2.388 0 3.931 1.76 3.931 4.484 0 2.681-1.58 4.483-3.93 4.483zm13.344-16.627h-3.555a.094.094 0 00-.094.094v19.242c0 .052.042.094.094.094h3.555a.094.094 0 00.094-.095V4.507a.094.094 0 00-.094-.095zm15.359 15.487a.094.094 0 00-.125-.036l-.122.066c-1.211.635-2.304 1.276-4.6 1.276-2.49 0-4.18-1.382-4.518-3.697h10.545a.089.089 0 00.036-.007.09.09 0 00.051-.05.089.089 0 00.008-.036v-1.018c0-4.633-2.772-7.501-7.234-7.501-4.275 0-7.262 3.195-7.262 7.772 0 4.515 3.23 7.549 8.036 7.549 2.281.03 4.525-.577 6.479-1.753l.063-.04a.096.096 0 00.04-.057.097.097 0 00-.01-.07l-1.387-2.398zm-5.925-7.976c1.947 0 3.145 1.01 3.465 2.923h-6.888c.33-1.888 1.546-2.924 3.423-2.924z"/></g><defs><clipPath id="clip0"><path fill="#fff" d="M0 0h142.857v26H0z" transform="translate(.452 4)"/></clipPath></defs></svg>
